X:250
T:The Breakwater Boys Breakdown
C:Émile Benoit
Z:robin.beech@mcgill.ca
S:CD - Tüq, Nicholas Williams, Yann Falquet and Greg Brown
R:reel
M:4/4
L:1/8
K:Ador
Adcd Adcd | Adcd fdcd | Adcd Adcd | BGAB c2Bc |
Adcd Adcd | Adcd fdef | gfec dcAB | cAGE c2Bc ::
AGFG A2GF | D2CD FDAc | AGFG ABcA | dcAF G2Ac |
AGFG A2GF | D2CD FDAc | AGFG AdcA | GFDC D2Ac :|
